icons/svg/camera_14.svg

<?xml version="1.0" encoding="UTF-8"?>
<svg width="14px" height="14px" viewBox="0 0 14 14" version="1.1" xmlns="http://www.w3.org/2000/svg" xmlns:xlink="http://www.w3.org/1999/xlink">
    <!-- Generator: Sketch 59.1 (86144) - https://sketch.com -->
    <title>camera_14</title>
    <desc>Created with Sketch.</desc>
    <g id="Icons-Webex" stroke="none" stroke-width="1" fill="none" fill-rule="evenodd">
        <g id="activities/camera_14" fill="#171B1F">
            <path d="M13.0034,8.9976 L11.0104,7.0006 L13.0034,5.0036 L13.0034,8.9976 Z M10.0004,10.940475 C10.0004,11.248725 9.7764,11.4996 9.5034,11.4996 L1.4974,11.4996 C1.2234,11.4996 1.0004,11.248725 1.0004,10.940475 L1.0004,3.05985 C1.0004,2.7516 1.2234,2.4996 1.4974,2.4996 L9.5034,2.4996 C9.7764,2.4996 10.0004,2.7516 10.0004,3.05985 L10.0004,10.940475 Z M12.4924,4.2576 L11.0004,5.7326 L11.0004,2.9976 C11.0004,2.1716 10.3294,1.4996 9.5034,1.4996 L1.4974,1.4996 C0.6714,1.4996 0.0004,2.1706 0.0004,2.9976 L0.0004,11.0026 C0.0004,11.8286 0.6704,12.4996 1.4974,12.4996 L9.5034,12.4996 C10.3284,12.4996 11.0004,11.8296 11.0004,11.0026 L11.0004,8.2686 L12.4894,9.7406 C12.6594,9.9106 12.8844,9.9996 13.1144,9.9996 C13.2284,9.9996 13.3444,9.9776 13.4534,9.9326 C13.7854,9.7946 14.0004,9.4726 14.0004,9.1126 L14.0004,4.8886 C14.0004,4.5286 13.7854,4.2066 13.4534,4.0676 C13.1204,3.9306 12.7414,4.0056 12.4924,4.2576 Z" id="fill"></path>
        </g>
    </g>
</svg>

<svg width="14" height="14" xmlns="http://www.w3.org/2000/svg"><path d="M13.003 8.998L11.01 7l1.993-1.997v3.994zM10 10.94c0 .309-.224.56-.497.56H1.497c-.274 0-.497-.251-.497-.56V3.06c0-.308.223-.56.497-.56h8.006c.273 0 .497.252.497.56v7.88zm2.492-6.682L11 5.733V2.998c0-.826-.67-1.498-1.497-1.498H1.497C.671 1.5 0 2.17 0 2.998v8.005c0 .826.67 1.497 1.497 1.497h8.006c.825 0 1.497-.67 1.497-1.497V8.269l1.49 1.472a.881.881 0 00.963.192.886.886 0 00.547-.82V4.889a.888.888 0 00-.547-.821.878.878 0 00-.96.19z" fill="#171B1F" fill-rule="evenodd"/></svg>
